X:1
T:Cowboy Fireman (Trusty Lariat)
M:6/8
L:1/8
K:F
 z4 z C/2F/2| A2 AA-G A| G F2- FD D| F2 F EED| C3 z2 A| A A2 A2 G|\
 G F2- F2 A| A2 G G2 A| G3 z2 A| A2 c A2 G| G F2- F2 D| F F2 E2 D|\
 C3 z2 F/2F/2| F F2 EED| CCF A2A/2-A/2| A2 G E2 C| F3 z2 A| A2 A A2 G|\
 F D2- D2 A| A2 G F2 E| D3 z2 G| G2 G G2 F| E2 F G2 G| G2 F E2 D| C3 z3|\
